assets/icons/upload.svg

<svg xmlns="http://www.w3.org/2000/svg" viewBox="0 0 48 48" role="presentation" aria-hidden="true"><path d="M37.456 18.6609C38.7382 18.6844 40.0033 18.9592 41.1797 19.47C42.3156 19.9645 43.3458 20.6731 44.2139 21.5571C45.0759 22.4264 45.7626 23.4533 46.2366 24.5821C46.7404 25.7686 47 27.0444 47 28.3334C47 29.6224 46.7404 30.8982 46.2366 32.0847C45.7457 33.229 45.0439 34.2707 44.1679 35.1556C43.2796 36.0624 42.2159 36.7788 41.0418 37.2611C39.8824 37.769 38.6297 38.0289 37.364 38.0243H29.3281C29.1986 38.0255 29.0701 38.0009 28.9502 37.9519C28.8303 37.9029 28.7213 37.8305 28.6297 37.7389C28.5381 37.6473 28.4657 37.5383 28.4167 37.4184C28.3677 37.2985 28.3431 37.17 28.3443 37.0405C28.343 36.9109 28.3675 36.7824 28.4164 36.6624C28.4654 36.5424 28.5378 36.4334 28.6293 36.3417C28.719 36.2475 28.8277 36.1733 28.9481 36.1242C29.0686 36.0751 29.1981 36.052 29.3281 36.0567H37.3181C39.3599 36.0494 41.3154 35.2319 42.7549 33.7837C44.1944 32.3356 45.0003 30.3753 44.9954 28.3334C44.9978 27.3245 44.8009 26.3251 44.4159 25.3925C44.031 24.46 43.4655 23.6127 42.7522 22.8993C42.0388 22.1859 41.1915 21.6205 40.2589 21.2355C39.3264 20.8505 38.3269 20.6536 37.3181 20.656H36.9135C36.7773 20.6551 36.6415 20.6706 36.5089 20.702C36.3713 20.6968 36.2351 20.672 36.1044 20.6285C35.9702 20.5912 35.8471 20.5218 35.7458 20.4262C35.633 20.3231 35.5477 20.1935 35.4976 20.0492C35.4525 19.9097 35.4307 19.7637 35.4332 19.6171V19.5343V18.8723C35.442 17.4247 35.1509 15.9909 34.5781 14.6613C33.4678 12.0549 31.3921 9.97915 28.7856 8.86882C27.4615 8.26202 26.022 7.94839 24.5654 7.94938C23.2447 7.94538 21.935 8.18862 20.7038 8.66654C19.4759 9.14603 18.3381 9.82995 17.3386 10.6893C16.3818 11.5579 15.5769 12.5803 14.9573 13.7143C14.3347 14.8564 13.9264 16.1029 13.7528 17.392C13.7392 17.5192 13.7005 17.6423 13.639 17.7544C13.5774 17.8665 13.4942 17.9652 13.3942 18.0448C13.2999 18.122 13.1911 18.1796 13.0743 18.2143C12.9575 18.249 12.835 18.2602 12.7138 18.2471C12.5577 18.2352 12.401 18.2352 12.2449 18.2471H11.8679C9.5321 18.2521 7.28736 19.1539 5.59736 20.7664C4.77714 21.5946 4.1219 22.5712 3.66653 23.6442C2.76695 25.8612 2.76695 28.3415 3.66653 30.5584C4.11992 31.6298 4.77548 32.6037 5.59736 33.4271C6.40442 34.2401 7.36773 34.8812 8.42923 35.3119C9.53281 35.7978 10.7265 36.0453 11.9323 36.0383H19.5177C19.6462 36.035 19.7739 36.0586 19.8927 36.1077C20.0115 36.1568 20.1186 36.2302 20.2073 36.3233C20.3001 36.4145 20.3739 36.5233 20.4244 36.6432C20.4749 36.7632 20.5011 36.8919 20.5015 37.0221C20.5021 37.1524 20.4764 37.2815 20.4258 37.4016C20.3753 37.5217 20.3009 37.6303 20.2073 37.7209C20.1186 37.8139 20.0115 37.8874 19.8927 37.9365C19.7739 37.9856 19.6462 38.0092 19.5177 38.0059H11.9139C10.4487 38.0215 8.99611 37.7335 7.64771 37.16C6.36267 36.5866 5.19156 35.7861 4.19061 34.797C3.18415 33.8092 2.38953 32.6267 1.85523 31.3216C1.29081 29.9862 1 28.5511 1 27.1013C1 25.6515 1.29081 24.2165 1.85523 22.8811C2.38723 21.5748 3.18215 20.3918 4.19061 19.4056C5.19081 18.4133 6.36196 17.6096 7.64771 17.0335C8.99552 16.457 10.4481 16.1659 11.9139 16.1784H12.0334C12.3239 14.8411 12.8201 13.5569 13.5045 12.3719C14.6389 10.433 16.261 8.82478 18.2095 7.70698C20.158 6.58918 22.365 6.00075 24.6114 6.00016C26.2798 5.99174 27.9335 6.31221 29.478 6.94326C31.0226 7.57432 32.4275 8.50358 33.6127 9.67792C34.7712 10.8364 35.7063 12.1985 36.371 13.6959C37.0636 15.2608 37.4326 16.9497 37.456 18.6609ZM25.2918 10.8732C25.463 11.0639 25.5577 11.3111 25.5577 11.5674C25.5577 11.8236 25.463 12.0709 25.2918 12.2616C25.205 12.3551 25.0997 12.4296 24.9825 12.4803C24.8654 12.5309 24.739 12.5566 24.6114 12.5558C23.0846 12.534 21.6051 13.0851 20.4647 14.1004C19.3107 15.0776 18.5658 16.4525 18.3776 17.9529C18.3403 18.1892 18.2197 18.4044 18.0375 18.5595C17.8554 18.7146 17.6238 18.7995 17.3846 18.7988H17.2559C16.9979 18.7496 16.7662 18.6093 16.6031 18.4034C16.5215 18.3033 16.4649 18.1852 16.4377 18.059C16.4106 17.9328 16.4136 17.8019 16.4468 17.6771C16.7333 15.7143 17.7152 13.9198 19.2138 12.6204C20.7124 11.3209 22.6279 10.603 24.6114 10.5974C24.7377 10.5941 24.8632 10.617 24.9803 10.6644C25.0974 10.7119 25.2034 10.7829 25.2918 10.8732ZM29.0615 29.9056C29.1606 29.988 29.2413 30.0904 29.2984 30.206C29.3554 30.3216 29.3874 30.448 29.3925 30.5768C29.4019 30.7062 29.3856 30.8362 29.3446 30.9593C29.3036 31.0823 29.2386 31.1961 29.1534 31.294C29.0477 31.3993 28.9229 31.4835 28.7856 31.5422C28.659 31.588 28.5249 31.6099 28.3903 31.6066C28.2736 31.6102 28.1574 31.5883 28.0501 31.5422C27.9482 31.4976 27.8499 31.4454 27.7559 31.3859L25.3745 29.2712V41.2883C25.3758 41.4178 25.3511 41.5463 25.3021 41.6662C25.2531 41.7861 25.1807 41.8951 25.0891 41.9867C24.9975 42.0783 24.8886 42.1507 24.7687 42.1997C24.6487 42.2487 24.5203 42.2733 24.3907 42.2721C24.2653 42.2729 24.1411 42.248 24.0257 42.199C23.9102 42.1499 23.8061 42.0778 23.7195 41.9871C23.5405 41.7987 23.4416 41.5482 23.4437 41.2883V29.2528L21.0715 31.3675C20.8695 31.5391 20.61 31.6279 20.3452 31.6158C20.2156 31.6096 20.0889 31.5761 19.9732 31.5175C19.8575 31.4589 19.7555 31.3764 19.674 31.2756C19.5038 31.0764 19.4151 30.8202 19.4257 30.5584C19.4319 30.4289 19.4654 30.3021 19.524 30.1864C19.5827 30.0708 19.6651 29.9688 19.7659 29.8872L23.315 26.6968C23.6198 26.4358 24.0078 26.2923 24.4091 26.2922C24.8002 26.2875 25.1784 26.4322 25.4665 26.6968L29.0615 29.9056Z" fill="currentColor"/></svg>

<svg xmlns="http://www.w3.org/2000/svg" aria-hidden="true" viewBox="0 0 48 48"><path fill="currentColor" d="M37.456 18.66a9.8 9.8 0 0 1 3.724.81 9.7 9.7 0 0 1 3.034 2.087 9.5 9.5 0 0 1 2.023 3.025 9.6 9.6 0 0 1 0 7.503 9.9 9.9 0 0 1-2.07 3.07 9.35 9.35 0 0 1-3.125 2.106 9.1 9.1 0 0 1-3.678.763h-8.036a.975.975 0 0 1-.984-.983.98.98 0 0 1 .285-.7.92.92 0 0 1 .7-.284h7.99a7.705 7.705 0 0 0 7.676-7.724 7.66 7.66 0 0 0-7.677-7.677h-.404q-.206 0-.405.046a1.5 1.5 0 0 1-.405-.074.92.92 0 0 1-.607-.58 1.3 1.3 0 0 1-.064-.43v-.746a10.5 10.5 0 0 0-.855-4.21 10.97 10.97 0 0 0-5.792-5.793 10.1 10.1 0 0 0-4.22-.92 10.6 10.6 0 0 0-3.862.718 11.7 11.7 0 0 0-3.365 2.022 11.6 11.6 0 0 0-2.382 3.025 10.7 10.7 0 0 0-1.204 3.678.97.97 0 0 1-.679.822.9.9 0 0 1-.36.033 3 3 0 0 0-.47 0h-.376a9.1 9.1 0 0 0-6.27 2.52 9.2 9.2 0 0 0-1.931 2.877 9.2 9.2 0 0 0 0 6.914 9.1 9.1 0 0 0 1.93 2.87 8.5 8.5 0 0 0 2.832 1.884 8.6 8.6 0 0 0 3.503.726h7.586a.92.92 0 0 1 .69.285.98.98 0 0 1 .218 1.079 1 1 0 0 1-.219.319.92.92 0 0 1-.69.285h-7.603a10.6 10.6 0 0 1-4.266-.846 11.7 11.7 0 0 1-3.457-2.363 10.4 10.4 0 0 1-2.336-3.475 10.84 10.84 0 0 1 0-8.44 10.3 10.3 0 0 1 2.336-3.476c1-.993 2.171-1.796 3.457-2.372 1.348-.577 2.8-.868 4.266-.856h.12c.29-1.337.786-2.621 1.47-3.806A12.87 12.87 0 0 1 24.612 6a12.7 12.7 0 0 1 9.002 3.678 13.3 13.3 0 0 1 2.758 4.018 12.7 12.7 0 0 1 1.085 4.965m-12.164-7.787a1.04 1.04 0 0 1 0 1.389.92.92 0 0 1-.68.294 6.1 6.1 0 0 0-4.147 1.544 6.03 6.03 0 0 0-2.087 3.853 1 1 0 0 1-.993.846h-.13a1.1 1.1 0 0 1-.652-.396.82.82 0 0 1-.156-.726 8.275 8.275 0 0 1 8.164-7.08.92.92 0 0 1 .68.276m3.77 19.033a.92.92 0 0 1 .33.67 1 1 0 0 1-.239.718q-.16.16-.367.248-.192.07-.396.065a.8.8 0 0 1-.34-.065 2 2 0 0 1-.294-.156l-2.381-2.115v12.017a.973.973 0 0 1-.984.984.92.92 0 0 1-.671-.285 1 1 0 0 1-.276-.699V29.253l-2.372 2.114c-.203.172-.462.26-.727.249a.92.92 0 0 1-.671-.34 1.04 1.04 0 0 1-.248-.718.92.92 0 0 1 .34-.67l3.549-3.191a1.68 1.68 0 0 1 1.094-.405c.391-.005.77.14 1.058.405z"/></svg>
